public/images/icon-area.svg

<?xml version="1.0" encoding="UTF-8"?>
<svg width="16px" height="17px" viewBox="0 0 16 17" version="1.1" xmlns="http://www.w3.org/2000/svg" xmlns:xlink="http://www.w3.org/1999/xlink">
    <!-- Generator: Sketch 51.1 (57501) - http://www.bohemiancoding.com/sketch -->
    <title>6084 internationaal</title>
    <desc>Created with Sketch.</desc>
    <defs></defs>
    <g id="A.-Data-[ALL-PAGES]" stroke="none" stroke-width="1" fill="none" fill-rule="evenodd">
        <g id="B.-Data---Dataset---Desktop-[1366px]" transform="translate(-635.000000, -388.000000)">
            <g id="6084-internationaal" transform="translate(635.000000, 388.000000)">
                <g id="_x36_4px_Box">
                    <rect id="Rectangle-path" x="0" y="0" width="17" height="17"></rect>
                </g>
                <g id="Icon" fill="#000000" fill-rule="nonzero">
                    <g id="Group">
                        <path d="M6.07482034,14.0801286 L5.15254237,14.601381 L5.15254237,12.6825397 L4.06779661,12.6825397 L4.06779661,14.6018937 L3.14136949,14.0801286 C2.98568136,13.9917825 2.78600678,14.0255937 2.66915254,14.1607571 C2.55213559,14.2959206 2.54587119,14.4947397 2.65700339,14.6345444 L4.31322034,16.7233587 C4.38418983,16.8128921 4.49190508,16.8650794 4.60650847,16.8650794 C4.72111186,16.8650794 4.82877288,16.8128921 4.89976949,16.7233587 L6.55690847,14.6345444 C6.66747119,14.4954143 6.66381017,14.2962444 6.54652203,14.1607571 C6.42964068,14.0255937 6.23050847,13.9917825 6.07482034,14.0801286 Z" id="Shape"></path>
                        <path d="M15.7219797,10.5067016 L13.6227525,8.85770159 C13.4829288,8.7476873 13.2827661,8.75116825 13.1466034,8.8678746 C13.0107661,8.98414921 12.9767864,9.18194286 13.0655729,9.33685873 L13.5894237,10.2539683 L11.6610169,10.2539683 L11.6610169,11.3333333 L13.589939,11.3333333 L13.0655729,12.2557857 C12.9767864,12.4107016 13.0107661,12.6100063 13.1466034,12.7263079 C13.2824407,12.8427444 13.4822508,12.8489778 13.6227525,12.7383968 L15.7219797,11.0903683 C15.8119593,11.0197508 15.8644068,10.9125429 15.8644068,10.7985349 C15.8644068,10.684527 15.8119593,10.577346 15.7219797,10.5067016 Z" id="Shape"></path>
                        <path d="M9.14912542,0.402834127 C9.35642034,0.326384127 9.39788475,0.271534127 9.39788475,0.195084127 C9.39788475,0.118634127 9.27349153,0.042234127 9.06622373,0.026984127 C9.06622373,0.026984127 8.75115932,0.118684127 8.76772881,0.363334127 C8.78432542,0.607884127 8.94183051,0.479284127 9.14912542,0.402834127 Z" id="Shape"></path>
                        <path d="M6.11012881,6.24385714 L6.81049492,6.55239365 C6.92306441,6.60199048 7.05179661,6.60366349 7.16368814,6.55252857 C7.4823322,6.40689524 7.92591186,6.14884603 8.09732881,5.83636984 C8.13030508,5.77624921 8.13868475,5.70573968 8.1364339,5.63728095 C8.13429153,5.57222222 8.12957288,5.50797302 8.1227661,5.44787937 C8.09955254,5.24169365 7.93087458,5.08067937 7.72282034,5.06675556 C7.60338983,5.05876825 7.45971525,5.0552873 7.30709153,5.05731111 C7.19216271,5.05882222 7.08162712,5.10383175 7.00035254,5.18467619 L6.11012881,6.07048413 L6.11012881,6.24385714 Z" id="Shape"></path>
                        <path d="M4.77130847,3.0465619 C4.84593898,3.05481905 5.06980339,2.81555079 5.12783729,2.75780476 C5.18587119,2.70005873 5.18090847,2.3444619 5.12783729,2.2710381 C5.0747661,2.19764127 5.03278644,2.0949127 4.9227661,2.13760159 C4.81277288,2.18031746 4.52254915,2.82912381 4.53914576,2.90896984 C4.55574237,2.98881587 4.69667797,3.03830476 4.77130847,3.0465619 Z" id="Shape"></path>
                        <path d="M7.92010847,0.637922911 C8.07764068,0.587894811 8.3531661,0.604122647 8.3448678,0.333998724 C8.3448678,0.333998724 8.33656949,0.136575506 7.83907797,0.285315215 C7.34161356,0.434008559 7.27528136,0.424040031 7.27528136,0.624106068 C7.27530847,0.82421847 7.76257627,0.687951012 7.92010847,0.637922911 Z" id="Shape"></path>
                        <path d="M6.25730169,0.991450794 C6.25730169,0.991450794 6.59058983,0.782269841 6.85632542,0.785912698 C7.12206102,0.789528571 7.00718644,0.575139683 7.00718644,0.575139683 C7.00718644,0.575139683 6.82475932,0.391836508 6.28366102,0.729353968 C5.74258983,1.06681746 5.88539661,1.10645714 5.89469831,1.12901587 C5.904,1.1515746 6.05697627,1.1532746 6.25730169,0.991450794 Z" id="Shape"></path>
                        <path d="M5.50334915,1.69630317 C5.57797966,1.55606667 5.79254237,1.51556349 5.6999322,1.39650952 C5.6999322,1.39650952 5.50093559,1.34699365 5.31853559,1.55326032 C5.13610847,1.7595 5.02004068,1.85850476 5.09467119,1.96576667 C5.16930169,2.07302857 5.42874576,1.83656667 5.50334915,1.69630317 Z" id="Shape"></path>
                        <path d="M2.32707797,9.63800159 L2.70535593,9.99160159 C2.79132203,10.0719333 2.92016271,10.0864238 3.0219661,10.0271667 L3.13130847,9.9635381 C3.22397288,9.90959683 3.24978983,9.8300746 3.1739661,9.75446508 L2.32900339,9.19592063 C2.31102373,9.18402063 2.29063051,9.17670794 2.26901695,9.17738254 C2.13404746,9.18164603 1.68189831,9.17732857 1.68189831,9.47404603 L2.09960678,9.53025397 C2.17727458,9.56703333 2.24941017,9.60119524 2.32707797,9.63800159 Z" id="Shape"></path>
                        <path d="M1.96965424,10.1933889 L2.09412881,10.2710762 C2.24824407,10.3672476 2.44328136,10.3702159 2.60029831,10.2787397 L2.60287458,10.2772286 L2.18991186,9.94427143 C2.11110508,9.88072381 2.01562034,9.84105714 1.91479322,9.82993968 L1.48493559,9.78258254 C1.42177627,9.77562063 1.35802034,9.80047302 1.31905085,9.85039365 C1.25632542,9.93069841 1.19981017,10.0137556 1.15080678,10.0984587 L1.72496271,10.1186429 C1.81171525,10.121746 1.89610847,10.1475159 1.96965424,10.1933889 Z" id="Shape"></path>
                        <path d="M11.7550373,7.87842063 L11.7466847,7.87078413 C11.6123661,7.74781746 11.6079729,7.53828571 11.7370576,7.40984127 L12.6325424,6.51879841 C12.6902508,6.46134921 12.7226847,6.38347302 12.7226847,6.30222381 L12.7226847,5.77840794 C12.7226847,5.60921746 12.5848678,5.47208413 12.4148339,5.47208413 L11.7423458,5.47208413 C11.6098441,5.47208413 11.4921763,5.38770476 11.450278,5.26263333 L11.3543322,4.97627778 C11.3104271,4.84521587 11.3601085,4.7011746 11.4756068,4.62453968 L12.4875119,3.95328254 C12.6344136,3.85581587 12.7226576,3.69175238 12.7226576,3.51605873 L12.7226576,1.89242381 C12.7226576,1.58636984 12.5741288,1.29920476 12.3238508,1.12129841 L11.3822373,0.452038095 C11.1666441,0.298795238 10.8908475,0.256160317 10.6386983,0.337112698 L7.18549153,1.44553968 C7.07327458,1.48156349 6.99159322,1.57819365 6.97515932,1.69436032 L6.7472,3.30539365 C6.72648136,3.45175556 6.81374915,3.59196508 6.95468475,3.63870159 L7.22231864,3.72747937 C7.34804068,3.76919683 7.43281356,3.88625397 7.43281356,4.0181254 L7.43281356,4.50068254 C7.43281356,4.60826825 7.51834576,4.69593968 7.6263322,4.70087778 C7.91373559,4.71399206 8.18050169,4.75789524 8.28987119,4.86672222 C8.47349153,5.04918889 8.48824407,5.6496127 8.48905763,5.79959048 C8.48542373,5.82177143 8.48189831,5.84327778 8.47823729,5.86545873 C8.26513898,6.45568254 7.36892203,6.94776508 7.06828475,7.09895714 C7.00772881,7.12942222 6.93618983,7.12812698 6.87715254,7.09485556 L5.89407458,6.54119524 C5.80612881,6.50244603 5.74942373,6.41574603 5.74945085,6.32006032 L5.74964068,5.64289365 L5.74964068,5.20248571 C5.74964068,5.07557937 5.82513898,4.96070794 5.9419661,4.90984286 L5.94804068,4.90719841 C6.10587119,4.83849683 6.18107119,4.65808095 6.11842712,4.49838889 L5.82608814,3.75297937 C5.77998644,3.63543651 5.66614237,3.55801905 5.53930847,3.55801905 C5.12672542,3.55801905 5.08848814,3.59102063 4.84870508,3.45955397 C4.68444746,3.36950794 4.47815593,3.44525238 4.41204068,3.61986667 C4.34592542,3.79445397 4.30714576,5.39725714 3.99237966,6.27429524 C3.56715932,7.45900635 2.67498305,8.20795079 2.67498305,8.20795079 C2.65431864,8.26256667 2.63986441,8.31882857 2.63172881,8.37662857 C2.62147797,8.44921587 2.60729492,8.55172857 2.59484746,8.63346349 C2.58191186,8.7182746 2.61044068,8.80340952 2.67191864,8.86355714 C2.90101695,9.08755238 3.43774915,9.61833016 3.43774915,9.61833016 C3.62424407,9.80433175 3.58386441,10.1155667 3.35595932,10.2483016 L2.78234576,10.582446 C2.72371525,10.6166079 2.71929492,10.6992873 2.77388475,10.7395476 C3.04908475,10.9424143 3.28536949,11.1165968 3.30375593,11.1302508 C3.34931525,11.1640619 3.31731525,11.2661159 3.31731525,11.2661159 L2.22958644,10.6661238 C2.01415593,10.5415921 1.76395932,10.472081 1.51487458,10.4778825 C1.51487458,10.4778825 0.248976271,10.5755651 0.581586441,10.9065254 C0.749613559,11.0589587 1.08656271,11.4463698 1.19934915,11.408646 C1.27454915,11.3834698 1.37217627,11.3029222 1.37217627,11.3029222 L2.10275254,11.7145111 C2.15793898,11.7372857 2.15864407,11.6387937 2.21290847,11.5419476 C2.2672,11.4451286 2.38611525,11.4044905 2.48903051,11.4469095 C2.48903051,11.4469095 3.29627119,11.7970825 3.43058983,11.8346175 C3.53515932,11.8638143 3.62687458,11.8457079 3.70684746,11.7510206 C3.77667797,11.6683143 3.96024407,11.3727841 3.96024407,11.3727841 C4.02524746,11.2757492 4.14004068,11.2238587 4.25627119,11.2389429 L5.91251525,11.4542762 C6.00577627,11.4663921 6.08835254,11.5203063 6.1367322,11.6005841 C6.25361356,11.8401492 6.29437288,11.8980571 6.42790508,11.9710762 C6.48469153,12.0021349 8.27951186,12.7603349 8.27951186,12.7603349 C8.42456949,12.8221556 8.49911864,12.9830889 8.45220339,13.1329857 L8.18269831,13.9939413 C8.18280678,14.0563825 8.18291525,14.1145333 8.18302373,14.1769746 L8.31346441,14.5884556 C8.35397966,14.7163063 8.47330169,14.8031143 8.608,14.8027905 L9.53011525,14.8006048 C9.69985085,14.8002 9.83720678,14.6631746 9.83720678,14.4943079 C9.77703051,14.3943587 9.52607458,13.9186286 9.46804068,13.8897556 L9.32753898,13.8198397 C9.22324068,13.7679492 9.15734237,13.6618746 9.15734237,13.5458429 L9.15734237,13.3835603 C9.15734237,13.3023111 9.18977627,13.2244349 9.24751186,13.1669857 L9.78587119,12.7009968 C9.81101017,12.6605476 9.83511864,12.6217175 9.86023051,12.5812413 L10.2727593,11.3497397 C10.3015322,11.2639032 10.2906576,11.1698365 10.2431186,11.0926889 L9.2260339,9.44293333 C9.17317966,9.35720476 9.16599322,9.25113016 9.20680678,9.15911429 L9.26218305,9.03423175 C9.31788475,8.90862063 9.4507661,8.83522381 9.58736271,8.8546254 L10.8871593,9.03938571 C10.983078,9.0530127 11.0798373,9.02092857 11.1483661,8.95273968 L11.7646373,8.33949841 C11.8937763,8.21094603 11.8893831,8.00141429 11.7550373,7.87842063 Z" id="Shape"></path>
                        <path d="M2.87419661,11.8994873 L2.504,11.7386349 C2.47623051,11.726573 2.44398644,11.7314571 2.42107119,11.7511556 L2.11661017,12.0129556 C2.08997966,12.0358381 2.05133559,12.0383746 2.02193898,12.0191349 L1.49684068,11.6758698 C1.45301695,11.6472397 1.39674576,11.6455397 1.35124068,11.6714984 L1.22237288,11.7450032 C1.17450847,11.7723111 1.11495593,11.7689111 1.07058983,11.7363143 L0.60360678,11.3935079 C0.562576271,11.3633937 0.504433898,11.3745111 0.477559322,11.4176317 L0.120298305,11.9907206 C0.103050847,12.0183794 0.104813559,12.0537556 0.124691525,12.0796063 L0.323986441,12.2983667 C0.348230508,12.3298841 0.384786441,12.3495286 0.42459661,12.352281 C0.42459661,12.352281 0.824244068,12.4563587 0.876854237,12.3853365 C0.929464407,12.3143143 0.940718644,12.1161698 0.940718644,12.1161698 L1.24349831,12.1289603 C1.2592,12.1272873 1.27503729,12.1303635 1.28897627,12.1377841 L2.13421017,12.5877175 C2.16227797,12.6026667 2.19658305,12.5993206 2.22120678,12.5792444 L2.89258305,12.0318175 C2.93806102,11.9947143 2.92808136,11.9229095 2.87419661,11.8994873 Z" id="Shape"></path>
                    </g>
                </g>
            </g>
        </g>
    </g>
</svg>

<svg aria-hidden="true" focusable="false" role="img" width="16" height="17" xmlns="http://www.w3.org/2000/svg"><g fill="none"><path d="M0 0h17v17H0z"/><g fill="#000"><path d="M6.075 14.08l-.922.521v-1.918H4.068v1.919l-.927-.522a.38.38 0 0 0-.472.08.37.37 0 0 0-.012.475l1.656 2.088a.374.374 0 0 0 .587 0l1.657-2.088a.371.371 0 0 0-.01-.474.379.379 0 0 0-.472-.08zM15.722 10.507l-2.1-1.65a.374.374 0 1 0-.557.48l.524.917h-1.928v1.08h1.929l-.524.922a.376.376 0 0 0 .557.482l2.099-1.648a.37.37 0 0 0 0-.583zM9.15.403c.206-.077.248-.131.248-.208 0-.076-.125-.153-.332-.168 0 0-.315.092-.298.336.016.245.174.116.381.04zM6.11 6.244l.7.308c.113.05.242.052.354 0 .318-.145.762-.403.933-.716a.386.386 0 0 0 .04-.199 2.4 2.4 0 0 0-.014-.19.431.431 0 0 0-.4-.38 5.339 5.339 0 0 0-.416-.01.443.443 0 0 0-.307.128l-.89.885v.174zM4.771 3.047c.075.008.299-.231.357-.29.058-.057.053-.413 0-.486-.053-.073-.095-.176-.205-.133-.11.042-.4.691-.384.771.017.08.158.13.232.138zM7.92.638c.158-.05.433-.034.425-.304 0 0-.008-.197-.506-.049-.497.149-.564.139-.564.34 0 .2.488.063.645.013zM6.257.991s.334-.209.6-.205c.265.004.15-.21.15-.21s-.182-.184-.723.153c-.541.338-.399.377-.39.4.01.023.163.024.363-.138zM5.503 1.696c.075-.14.29-.18.197-.3 0 0-.2-.049-.381.157-.183.207-.299.306-.224.413.074.107.334-.13.408-.27zM2.327 9.638l.378.354c.086.08.215.094.317.035l.11-.063c.092-.054.118-.134.042-.21l-.845-.558a.103.103 0 0 0-.06-.019c-.135.005-.587 0-.587.297l.418.056.227.108zM1.97 10.193l.124.078c.154.096.35.1.506.008l.003-.002-.413-.333a.531.531 0 0 0-.275-.114l-.43-.047a.185.185 0 0 0-.166.067c-.063.08-.12.164-.168.248l.574.02a.496.496 0 0 1 .245.075z"/><path d="M11.755 7.878l-.008-.007a.318.318 0 0 1-.01-.461l.896-.891a.306.306 0 0 0 .09-.217v-.524a.307.307 0 0 0-.308-.306h-.673a.308.308 0 0 1-.292-.21l-.096-.286a.306.306 0 0 1 .122-.351l1.012-.672a.525.525 0 0 0 .235-.437V1.892a.946.946 0 0 0-.4-.77l-.94-.67a.84.84 0 0 0-.744-.115L7.185 1.446a.307.307 0 0 0-.21.248l-.228 1.611a.306.306 0 0 0 .208.334l.267.088c.126.042.21.16.21.291v.483c0 .107.086.195.194.2.288.013.555.057.664.166.183.182.198.783.2.933a55.5 55.5 0 0 1-.012.065c-.213.59-1.11 1.083-1.41 1.234a.203.203 0 0 1-.19-.004l-.984-.554a.242.242 0 0 1-.145-.22V5.202a.32.32 0 0 1 .193-.293l.006-.003a.319.319 0 0 0 .17-.409l-.292-.745a.308.308 0 0 0-.287-.195c-.412 0-.45.033-.69-.098a.308.308 0 0 0-.437.16c-.066.174-.105 1.777-.42 2.654-.425 1.185-1.317 1.934-1.317 1.934a.784.784 0 0 0-.043.169l-.037.256a.265.265 0 0 0 .077.23l.766.755a.4.4 0 0 1-.082.63l-.574.334a.094.094 0 0 0-.008.158l.53.39c.045.034.013.136.013.136l-1.087-.6a1.378 1.378 0 0 0-.715-.188s-1.266.098-.933.429c.168.152.505.54.617.502a.711.711 0 0 0 .173-.106l.73.412c.056.022.057-.076.11-.173a.22.22 0 0 1 .277-.095s.807.35.942.388c.104.029.196.01.276-.084.07-.083.253-.378.253-.378a.309.309 0 0 1 .296-.134l1.657.215a.308.308 0 0 1 .224.147c.117.24.157.297.29.37.058.031 1.853.79 1.853.79.145.061.22.222.172.372l-.27.86.001.184.13.411c.041.128.16.215.295.215l.922-.002c.17 0 .307-.138.307-.307-.06-.1-.31-.575-.369-.604l-.14-.07a.306.306 0 0 1-.17-.274v-.162c0-.082.032-.16.09-.217l.538-.466.074-.12.413-1.231a.305.305 0 0 0-.03-.257l-1.017-1.65a.305.305 0 0 1-.02-.284l.056-.125a.308.308 0 0 1 .325-.18l1.3.185a.309.309 0 0 0 .261-.086l.617-.614a.318.318 0 0 0-.01-.46z"/><path d="M2.874 11.9l-.37-.161a.079.079 0 0 0-.083.012l-.304.262a.079.079 0 0 1-.095.006l-.525-.343a.14.14 0 0 0-.146-.005l-.129.074a.14.14 0 0 1-.151-.009l-.467-.342a.088.088 0 0 0-.126.024l-.358.573a.078.078 0 0 0 .005.089l.199.218c.024.032.06.052.1.054 0 0 .4.104.453.033.052-.07.064-.269.064-.269l.302.013a.079.079 0 0 1 .046.009l.845.45a.079.079 0 0 0 .087-.009l.672-.547a.078.078 0 0 0-.019-.133z"/></g></g></svg>
